X:1
T:Häämarssi
T:Häämarssi
T:Wedding march
T:Toivo Kuula, Op. 3 No. 2
T:Copyright expired
T:Copyright expired
T:Copyright expired
T:Copyright expired
C:Toivo Kuula, Op. 3 No. 2
Z:Copyright expired
%%score { ( 1 2 5 ) | ( 3 4 ) }
L:1/8
Q:1/4=80
M:4/4
K:B
V:1 treble nm="Piano" snm="Pno."
V:2 treble 
V:5 treble 
V:3 bass 
V:4 bass 
V:1
!p!"_dolce""^Sostenuto" d2 c>B"_una corda" cA.B.c | !tenuto!d2 !tenuto!d2 !tenuto!G3 A | %2
 B2 A>G A^^FGA | B2 B2 c4 |"_tre corde" d2 c>B cABc | d2!<(! d2 d3 [^E^e]!<)! | %6
!mf! [FBf]2 [^EB^e][DBd] [EBe]3 [FBf] | [FAf]4!p! z2 (F2- | FFGA!<(! B2 cd!<)! | f6 e2 | %10
 d3 c B2 AG | c6) (F2- | FFGA!<(! B2 cd!<)! | [Af]3 [G^e] [Fd]2 [Fd]2) | %14
 z (A^B^^c"_poco a poco" d2 ^ef | a3 g f2 d2 | a3 g f)(fga | [Bb]3 [Aa] [Aa]2 [Gg]2) | %18
 z"_cresc." ([Dd][^E^e][^^F^^f] [Gg]2 [Aa][Bb] |!f! [dd']3 [cc'] [Bb]2 [Gg]2) | %20
 ([dd']3 [cc']!<(! [Bb][Gg][Aa][Bb])!<)! | [cegc']2 !>![Gceg]4 [Fcef]2 | %22
!ff!"_largamente" [dfd']2 [cfc']>[Bb] [cc'][Aa][Bb][cc'] | [dfd']2 [dfd']2 [GBdg]3 [Aa] | %24
 [Bdb]2 [Ada]>[Gg] [Aa][^^F^^f][Gg][Aa] | [Bdgb]2 [Bdgb]2 [cfac']4 | %26
!fff! [dfbd']2 [cfc']>[Bb] [cc'][Aa][Bb][cc'] | [dfbd']2 [d^^fbd']2 [GBeg]3 [Aa] | %28
 [Beb]2 [Aea][Geg] [Aea]3 [Beb] | [Bdb]4!8va(! [bd'f'b']2!8va)!!f! F2- ||[K:D] F2!>(! F4 F2-!>)! | %31
 F2 F4 F2 |!pp! [FBdf]2 [FBdf]2 [ABda]3 [Ff] | ag[Bcf][Bce] [Bdf]2 Bc | [FBd]2 cB [FAc]2 [FA]2 | %35
 [DFB]2 [DFB]6 |!p! [FBdf]2 [FBdf]2 [ABda]3 [Ff] | ag[Bcf][Bce] [Bdf]2 Bc | %38
 [FBd]2 cd [Ace]!<(![Bd] [Ace]2 | [Adf]2!<)! [FAdf]6 |!mf! [Fdf]2 [Fdf]2 b3 f | %41
 f!>(!edc f2!>)! B2 |!>(! [Ff]2 [Ff]2!>)!!pp!"_rit." !arpeggio![Bb]3 c | dcdB c4 | %44
!p!"_lento" [Fdf]2 [Fdf]2 a3 f | agfe f2 Bc | d2 Bc d2 ^A2 | B2 B4 ^A^G | c2 c4 F2 || %49
[K:B]!p!"_dolce" d2 c>B cABc | d2 d2 G3 A | B2 A>G A^^FGA |!<(! B2 B2!<)!!>(! c4!>)! | %53
 d2 c>B cABc | d2!<(! d2 d3 [^E^e]!<)! |!mf! [FBf]2 [^EB^e][DBd]!<(! [EBe]3 [FBf]!<)! | %56
!>(! [FAf]4 z2 (F2-!>)! |!p! FFGA!<(! B2 cd!<)! | f6 e2 | d3 c B2 AG | c6) (F2- | FFGA B2 cd | %62
 [Af]3 [G^e] [Fd]2 [Fd]2) | z (A^B^^c"_poco a poco""_cresc." d2 ^ef | a3 g f2 d2 | a3 g f)(fga | %66
 [Bb]3 [Aa] [Aa]2 [Gg]2) | z ([Dd][^E^e][^^F^^f] [Gg]2 [Aa][Bb] |!f! [dd']3 [cc'] [Bb]2 [Gg]2) | %69
 ([dd']3 [cc']!<(! [Bb][Gg][Aa][Bb])!<)! | [cegc']2 !>![Gceg]4 [Fcef]2 | %71
!ff! [dfd']2 [cfc']>[Bb] [cc'][Aa][Bb][cc'] | [dfd']2 [dfd']2 [GBdg]3 [Aa] | %73
 [Bdb]2 [Ada]>[Gg] [Aa][^^F^^f][Gg][Aa] | [Bdgb]2 [Bdgb]2 [cfac']4 | %75
!fff!"_largamente" [dfbd']2 [cfc']>[Bb] [cc'][Aa][Bb][cc'] | [dfbd']2 [d^^fbd']2 [GBeg]3 [Aa] | %77
 [Beb]2 [Aea][Geg] [Aea]3 [Beb] | [Bdb]4!8va(! [bd'-f'b']2!8va)! z2 |"_senza battere" d4 c3!p! B | %80
!>(! c2 A2 B2 c2 | [DFd]8-!>)! | [DFd]8 |] %83
V:2
 [DF]2 [DF]2 [E=G]2 [EG]2 | [DF]2 [DF]2 D4 | [B,D]2 [B,D]2 [CE]2 [CE]2 | [B,D]2 [B,D]2 [A,F]4 | %4
 [DF]2 [DF]2 [E=G]2 [EG]2 | [DF]2 [D^^F]2 [DG]3 x | x8 | x8 | x8 | x8 | x8 | %11
 z2!>(! ([EG]2 [EF]4)!>)! | x8 | x8 | x8 | A8 | [A-^e]4 A A3 | f4 ^e4 | z A3 d4 | a4 d4 | a4 d4 | %21
 x8 | x2 x2 =g2 g2 | x8 | x2 x2 e2 e2 | x8 | z2 z2 =g2 g2 | x8 | x8 | x4!8va(! x2!8va)! x2 || %30
[K:D] x8 | x8 | x8 | [Bc]2 x2 x4 | D2 CB, C2 [A,C]2 | B,2 B,6 | x8 | [Bc]2 x2 x4 | D2 CD ED E2 | %39
 F2 z6 | x4 [Bd]4 | ^A2 A2 F4 | c4 ^e4 | ^E2 E2 F4 | x4 [Ad]4 | [=Ac]2 [Gc]2 [FB]2 F2 | %46
 G2 G2 F2 F2 | ^E2 E4 E2 | [E^G]2 [EG]4 E2 ||[K:B] [DF]2 [DF]2 [E=G]2 [EG]2 | [DF]2 [DF]2 D4 | %51
 [B,D]2 [B,D]2 [CE]2 [CE]2 | [B,D]2 [B,D]2 [A,F]4 | [DF]2 [DF]2 [E=G]2 [EG]2 | %54
 [DF]2 [D^^F]2 [DG]3 x | x8 | x8 | x8 | x8 | x8 | z2!>(! ([EG]2 [EF]4)!>)! | x8 | x8 | x8 | A8 | %65
 [A-^e]4 A A3 | f4 ^e4 | z A3 d4 | a4 d4 | a4 d4 | x8 | x2 x2 =g2 g2 | x8 | x2 x2 e2 e2 | x8 | %75
 z2 z2 =g2 g2 | x8 | x8 | x4!8va(! x2!8va)! x2 | [DF]8 | [E=G]8 | x8 | x8 |] %83
V:3
 [B,,F,B,]2 [B,,F,B,]2 [B,,=G,A,]2 [B,,G,A,]2 | [B,,F,B,]2 [B,,F,B,]2 G,4 | %2
 [G,,D,G,]2 [G,,D,G,]2 [G,,E,^^F,]2 [G,,E,F,]2 | [G,,D,G,]2 [G,,D,G,]2 [F,,C,F,]4 | %4
 [B,,F,B,]2 [B,,F,B,]2 [B,,=G,A,]2 [B,,G,A,]2 | [B,,F,B,]2 [B,,^^F,B,]2 [B,,G,B,]2 [A,,A,]2 | %6
!ped! z2 [D,G,B,]2!ped-up!!ped! z2 [C,G,B,]2!ped-up! | %7
!ped! z2 [C,F,A,]2!ped-up!"_con Ped." z2 [A,C]2 | D,4 =D,4 | z2 [F,A,E]2 z2 [F,A,E]2 | %10
 z2 [F,B,D]2 z2 [C,^E,B,]2 | z2 B,2 A,4 | z2 [F,B,D]2 z2 [B,F]2 | (^^C,G,A,^E) (D,A,DF) | %14
 (G,^^C^EA) (F,A,DA) | (^E,A,^^CG) (D,A,DF) | (^^C,A,^EG) (D,A,DF) | (=D,G,B,F) (C,G,B,^E) | %18
 (C,^^F,A,D) (B,,D,G,D) | (A,,D,^^F,C) (G,,D,G,B,) | (^^F,,A,,D,A,) (G,,D,G,B,) | %21
 z2 !>![B,CE]4 [A,CE]2 |!ped! z2 [F,B,D]2 [=G,CE]4!ped-up! |!ped! z2 [F,B,D]2 [G,B,D]4!ped-up! | %24
!ped! z2 [D,G,B,]2 [E,A,C]4!ped-up! |!ped! z2 [D,G,B,]2 [C,F,A,C]4!ped-up! | %26
!ped! z2 [F,B,D]2 [=G,CE]4!ped-up! |!ped! z2 [D,^^F,B,D]2!ped! [E,G,B,E]4!ped-up! | %28
!ped! z2 [G,CE]2!ped! z2 [F,CE]2!ped-up! |!ped! z2 [F,B,D]2[K:treble] [Bdf]2 z2!ped-up! || %30
[K:D][K:bass] z8 | z8 | z8 | z8 | z8 | z4 F,,2 B,,,2 | z8 | z8 | z8 | z4 [D,,D,]2 [C,,C,]2 | %40
 [B,,,B,,]2 [B,,F,B,]2 [F,B,D]4 | [G,C]2 [G,E]2 [F,B,D]4 | [E,^A,C]4 !arpeggio![D,G,B,^E]4 | %43
 [C,B,]2 [C,B,]2 [F,^A,]4 | [D,B,D]2 [D,B,D]2 [D,B,D]4 | [D,^A,C]2 [D,A,C]2 [D,B,]2 [D,B,]2 | %46
 [D,B,]2 [D,B,]2 [D,^A,]2 [D,A,]2 | [C,B,]2 [C,B,]4 [C,B,]2 | z2 B,4 A,2 || %49
[K:B] [B,,F,B,]2 [B,,F,B,]2 [B,,=G,A,]2 [B,,G,A,]2 | [B,,F,B,]2 [B,,F,B,]2 G,4 | %51
 [G,,D,G,]2 [G,,D,G,]2 [G,,E,^^F,]2 [G,,E,F,]2 | [G,,D,G,]2 [G,,D,G,]2 [F,,C,F,]4 | %53
 [B,,F,B,]2 [B,,F,B,]2 [B,,=G,A,]2 [B,,G,A,]2 | [B,,F,B,]2 [B,,^^F,B,]2 [B,,G,B,]2 [A,,A,]2 | %55
!ped! z2 [D,G,B,]2!ped-up!!ped! z2 [C,G,B,]2!ped-up! | %56
!ped! z2 [C,F,A,]2"_con Ped." z2 [A,C]2!ped-up! | D,4 =D,4 | z2 [F,A,E]2 z2 [F,A,E]2 | %59
 z2 [F,B,D]2 z2 [C,^E,B,]2 | z2 B,2 A,4 | z2 [F,B,D]2 z2 [B,F]2 | (^^C,G,A,^E) (D,A,DF) | %63
 (G,^^C^EA) (F,A,DA) | (^E,A,^^CG) (D,A,DF) | (^^C,A,^EG) (D,A,DF) | (=D,G,B,F) (C,G,B,^E) | %67
 (C,^^F,A,D) (B,,D,G,D) | (A,,D,^^F,C) (G,,D,G,B,) | (^^F,,A,,D,A,) (G,,D,G,B,) | %70
 z2 !>![B,CE]4 [A,CE]2 |!ped! z2 [F,B,D]2!ped-up! [=G,CE]4 |!ped! z2 [F,B,D]2 [G,B,D]4!ped-up! | %73
!ped! z2 [D,G,B,]2 [E,A,C]4!ped-up! |!ped! z2 [D,G,B,]2 [C,F,A,C]4!ped-up! | %75
!ped! z2 [F,B,D]2 [=G,CE]4!ped-up! |!ped! z2 [D,^^F,B,D]2!ped! [E,G,B,E]4!ped-up! | %77
!ped! z2 [G,CE]2!ped! z2 [F,CE]2!ped-up! |!ped! z2 [F,B,D]2[K:treble] [FBdf]2 z2!ped-up! | %79
[K:bass] [B,,F,B,]8 | [B,,=G,A,]8 |!ped! [B,,F,B,]8-!ped-up! | [B,,F,B,]8 |] %83
V:4
 x8 | x4 B,,2 A,,2 | x8 | x8 | x8 | x8 | [G,,G,]4 [C,,C,]4 | [F,,,F,,]4 =E,4 | %8
 z2 [B,F]2 z2 [B,=F]2 | C,4 =C,4 | B,,4 G,,4 | F,,8 | B,,4 D,4 | ^^C,4 D,4 | G,4 F,4 | ^E,4 D,4 | %16
 ^^C,4 D,4 | =D,4 C,4 | C,4 B,,4 | A,,4 G,,4 | ^^F,,4 G,,4 | [F,,C,]8 | [B,,,B,,]8 | %23
 [B,,,B,,]6 [A,,,A,,]2 | [G,,,G,,]8 | [G,,,G,,]6 [F,,,F,,]2 | [B,,,,B,,,]8 | %27
 [B,,,B,,]4 z2 [D,,D,]2 | [C,,C,]4 [F,,,F,,]4 | [B,,,,B,,,]4[K:treble] z4 ||[K:D][K:bass] x8 | x8 | %32
 x8 | x8 | x8 | x8 | x8 | x8 | x8 | x8 | x8 | x8 | x8 | x8 | x8 | x8 | x8 | x8 | [F,,C,]8 || %49
[K:B] x8 | x4 B,,2 A,,2 | x8 | x8 | x8 | x8 | [G,,G,]4 [C,,C,]4 | [F,,,F,,]4 =E,4 | %57
 z2 [B,F]2 z2 [B,=F]2 | C,4 =C,4 | B,,4 G,,4 | F,,8 | B,,4 D,4 | ^^C,4 D,4 | G,4 F,4 | ^E,4 D,4 | %65
 ^^C,4 D,4 | =D,4 C,4 | C,4 B,,4 | A,,4 G,,4 | ^^F,,4 G,,4 | [F,,C,]8 | [B,,,B,,]8 | %72
 [B,,,B,,]6 [A,,,A,,]2 | [G,,,G,,]8 | [G,,,G,,]6 [F,,,F,,]2 | [B,,,,B,,,]8 | %76
 [B,,,B,,]4 z2 [D,,D,]2 | [C,,C,]4 [F,,,F,,]4 | [B,,,,B,,,]4[K:treble] x2 z2 |[K:bass] x8 | x8 | %81
 x8 | [B,,,,B,,,]8 |] %83
V:5
 x8 | x8 | x8 | x8 | x8 | x8 | x8 | x8 | x8 | x8 | x8 | x8 | x8 | x8 | x8 | x8 | x8 | x8 | x8 | %19
 x8 | x8 | x8 | x8 | x8 | x8 | x8 | x8 | x8 | x8 | x4!8va(! x2!8va)! x2 ||[K:D] x8 | x8 | x8 | %33
 AGFE F2 B,C | x8 | x8 | x8 | AGFE F2 B,C | x8 | x8 | x8 | x8 | x8 | x8 | x8 | x8 | x8 | x8 | x8 || %49
[K:B] x8 | x8 | x8 | x8 | x8 | x8 | x8 | x8 | x8 | x8 | x8 | x8 | x8 | x8 | x8 | x8 | x8 | x8 | %67
 x8 | x8 | x8 | x8 | x8 | x8 | x8 | x8 | x8 | x8 | x8 | x4!8va(! x2!8va)! x2 | x8 | x8 | x8 | x8 |] %83

